X:212
L:1/4
Q:1/4=220
M:2/2
K:G
"^polka" g/f/ | e d c/B/A/G/ | A G E3/2 F/ | G G G/A/B/c/ | d2 B g/f/ | e d c/B/A/G/ | 
 A G E3/2 F/ | G A D E/F/ | G2 G :| A | B d e f | g d B G | B d e f | g2 f g/f/ | e d c/B/A/G/ | 
 A G E3/2 F/ | G A D E/F/ |1 G2 G :|2 G4 ||

